packages/landing-ui/public/feature-analytics.svg

<svg width="75" height="73" viewBox="0 0 75 73" fill="none" xmlns="http://www.w3.org/2000/svg">
<path d="M41.5802 12.5651C38.0851 8.97651 33.4385 7 28.4957 7C23.553 7 18.9061 8.97637 15.411 12.5651C8.19634 19.973 8.19634 32.0268 15.411 39.4349C18.9061 43.0235 23.5528 45 28.4957 45C33.4383 45 38.0851 43.0236 41.5802 39.4349C45.0752 35.8464 47 31.075 47 26C47 20.925 45.0752 16.1538 41.5802 12.5651ZM16.9012 14.0952C19.9981 10.9154 24.1158 9.16403 28.4955 9.16403C32.8752 9.16403 36.9928 10.9154 40.0897 14.0952C42.534 16.6048 44.1107 19.7677 44.667 23.2L38.923 28.9674C38.379 28.6522 37.7518 28.4715 37.084 28.4715C35.7838 28.4715 34.6361 29.1537 33.962 30.1876L25.5195 27.4676C25.5199 27.4425 25.5213 27.4175 25.5213 27.3923C25.5213 25.2662 23.8368 23.5364 21.766 23.5364C19.6953 23.5364 18.0106 25.2662 18.0106 27.3923C18.0106 28.0873 18.1916 28.7395 18.5063 29.3033L14.0767 34.018C10.7155 27.6368 11.6562 19.4807 16.9012 14.0952ZM38.732 32.3273C38.732 33.2602 37.9927 34.0193 37.0841 34.0193C36.1756 34.0193 35.4362 33.2602 35.4362 32.3273C35.4362 31.3944 36.1756 30.6353 37.0841 30.6353C37.9927 30.6353 38.732 31.3942 38.732 32.3273ZM23.414 27.392C23.414 28.3249 22.6747 29.084 21.7661 29.084C20.8574 29.084 20.1181 28.3249 20.1181 27.392C20.1181 26.4591 20.8574 25.7 21.7661 25.7C22.6747 25.7001 23.414 26.4591 23.414 27.392ZM40.0898 37.9049C36.9929 41.0848 32.8753 42.8361 28.4957 42.8361C24.116 42.8361 19.9982 41.0849 16.9014 37.9049C16.2863 37.2734 15.7308 36.6033 15.2341 35.9028L20.0229 30.8058C20.5443 31.0876 21.1372 31.2479 21.7661 31.2479C23.0663 31.2479 24.214 30.5657 24.8881 29.5319L33.3306 32.2518C33.3302 32.2769 33.3288 32.3019 33.3288 32.3271C33.3288 34.4532 35.0133 36.183 37.0841 36.183C39.1547 36.183 40.8394 34.4532 40.8394 32.3271C40.8394 31.672 40.6789 31.0548 40.3972 30.514L44.8926 26.0003C44.8924 30.4973 43.1867 34.7251 40.0898 37.9049Z" fill="#F6376D"/>
<path d="M19 15.4309L20.3792 17C23.6393 14.198 28.21 13.334 32.3084 14.7456L33 12.7823C28.1922 11.1263 22.8277 12.1412 19 15.4309Z" fill="#263135"/>
<path d="M36.1091 14L35 15.8258C35.5642 16.1704 36.1058 16.5655 36.6096 17L38 15.3791C37.4085 14.8691 36.7722 14.4051 36.1091 14Z" fill="#263135"/>
<path d="M30.5793 38.6118C28.2845 39.1148 25.9261 38.9032 23.7585 38L23 39.969C24.6436 40.6539 26.38 41 28.1292 41C29.0869 41 30.0482 40.8962 31 40.6875L30.5793 38.6118Z" fill="#263135"/>
<path d="M56.0792 43.8899L54.5083 45.4697L50.6109 41.2803C55.2237 34.4994 56.3342 26.0162 53.9413 18.4157L57.0334 15.3747C57.5773 15.6702 58.1993 15.8381 58.8598 15.8381C60.9857 15.8381 62.7154 14.0987 62.7154 11.9607C62.7154 11.3276 62.5627 10.7299 62.2939 10.2014L68.932 3.67353V7.04757H71.0957V0H64.0879V2.17595H67.3601L60.8096 8.61762C60.2372 8.27865 59.5709 8.08317 58.8599 8.08317C56.734 8.08317 55.0043 9.82263 55.0043 11.9606C55.0043 12.6447 55.1821 13.2876 55.4927 13.8462L53.1229 16.1767C51.8471 13.1214 49.9761 10.26 47.5061 7.77602C37.2891 -2.49856 20.6654 -2.49827 10.4486 7.77602C1.34736 16.9287 0.35376 31.194 7.46689 41.4631L5.64521 43.3621C5.10996 43.0787 4.50117 42.9175 3.85547 42.9175C1.72954 42.9174 0 44.6568 0 46.7948C0 48.9327 1.72954 50.6722 3.85562 50.6722C5.98169 50.6722 7.71123 48.9327 7.71123 46.7948C7.71123 46.0958 7.52549 45.4401 7.2022 44.8731L8.79375 43.2139C9.3123 43.8429 9.86279 44.4538 10.4484 45.0429C15.5569 50.1801 22.2671 52.7487 28.9772 52.7487C34.1282 52.7487 39.2786 51.2331 43.7051 48.2059L47.6117 52.4053L45.9872 54.039L64.9077 73L75 62.8509L56.0792 43.8899ZM58.8599 10.2593C59.7927 10.2593 60.5518 11.0226 60.5518 11.9607C60.5518 12.8988 59.7927 13.6622 58.8599 13.6622C57.9269 13.6622 57.168 12.8988 57.168 11.9607C57.168 11.0226 57.9269 10.2593 58.8599 10.2593ZM3.85562 48.4961C2.9228 48.4961 2.16372 47.7327 2.16372 46.7946C2.16372 45.8565 2.9228 45.0932 3.85562 45.0932C4.78857 45.0932 5.54751 45.8565 5.54751 46.7946C5.54736 47.7328 4.78843 48.4961 3.85562 48.4961ZM11.9785 43.5044C2.60537 34.0783 2.60537 18.7411 11.9785 9.3147C16.6649 4.60159 22.8209 2.24533 28.9771 2.24533C35.1333 2.24533 41.2894 4.60189 45.9759 9.3147C55.349 18.7408 55.349 34.0782 45.9759 43.5044C36.6031 52.9303 21.3513 52.9303 11.9785 43.5044ZM45.4538 46.9005C46.1621 46.3238 46.8475 45.7051 47.5061 45.0429C48.1424 44.403 48.7389 43.738 49.2958 43.0514L52.9777 47.009L49.1426 50.8657L45.4538 46.9005ZM64.9052 69.9254L49.05 54.0362L56.0821 46.9643L71.9373 62.8534L64.9052 69.9254Z" fill="#687C94"/>
<path d="M54.9215 49L52 52.0852L53.4439 53.6098L54.9215 52.0492L60.5564 58L62 56.4755L54.9215 49Z" fill="#263135"/>
<path d="M64.4142 58.5858L63 60L64.4142 61.4142L65.8284 60L64.4142 58.5858Z" fill="black"/>
<path d="M14 53H12V55H14V53Z" fill="black"/>
<path d="M14 66H12V68H14V66Z" fill="black"/>
<path d="M31 58H29V60H31V58Z" fill="#F6376D"/>
<path d="M62 38H60V40H62V38Z" fill="black"/>
<path d="M64 20H62V22H64V20Z" fill="black"/>
<path d="M71 30H69V32H71V30Z" fill="#F6376D"/>
</svg>

<svg width="75" height="73" fill="none" xmlns="http://www.w3.org/2000/svg"><path d="M41.58 12.565C38.085 8.977 33.438 7 28.496 7c-4.943 0-9.59 1.976-13.085 5.565-7.215 7.408-7.215 19.462 0 26.87C18.906 43.023 23.553 45 28.496 45c4.942 0 9.59-1.976 13.084-5.565C45.075 35.846 47 31.075 47 26c0-5.075-1.925-9.846-5.42-13.435zm-24.679 1.53c3.097-3.18 7.215-4.931 11.595-4.931 4.38 0 8.497 1.751 11.594 4.931a16.868 16.868 0 014.577 9.105l-5.744 5.767a3.655 3.655 0 00-1.839-.495c-1.3 0-2.448.682-3.122 1.716l-8.443-2.72.002-.076c0-2.126-1.684-3.856-3.755-3.856-2.07 0-3.755 1.73-3.755 3.856 0 .695.18 1.348.495 1.911l-4.43 4.715c-3.36-6.381-2.42-14.537 2.825-19.923zm21.831 18.232c0 .933-.74 1.692-1.648 1.692-.908 0-1.648-.759-1.648-1.692 0-.933.74-1.692 1.648-1.692.909 0 1.648.76 1.648 1.692zm-15.318-4.935c0 .933-.74 1.692-1.648 1.692-.909 0-1.648-.76-1.648-1.692 0-.933.74-1.692 1.648-1.692.909 0 1.648.76 1.648 1.692zM40.09 37.905c-3.097 3.18-7.215 4.931-11.594 4.931-4.38 0-8.498-1.751-11.595-4.931a16.769 16.769 0 01-1.667-2.002l4.789-5.097a3.654 3.654 0 001.743.442c1.3 0 2.448-.682 3.122-1.716l8.443 2.72-.002.075c0 2.126 1.684 3.856 3.755 3.856 2.07 0 3.755-1.73 3.755-3.856 0-.655-.16-1.272-.442-1.813L44.893 26c0 4.497-1.706 8.725-4.803 11.905z" fill="#F6376D"/><path d="M19 15.43L20.38 17c3.26-2.802 7.83-3.666 11.928-2.254L33 12.782c-4.808-1.656-10.172-.64-14 2.649zM36.11 14L35 15.826c.564.344 1.106.74 1.61 1.174L38 15.38A14.407 14.407 0 0036.11 14zM30.58 38.612A11.336 11.336 0 0123.758 38L23 39.969a13.309 13.309 0 008 .718l-.42-2.075z" fill="#263135"/><path d="M56.08 43.89l-1.572 1.58-3.897-4.19c4.613-6.78 5.723-15.264 3.33-22.864l3.092-3.041a3.814 3.814 0 001.827.463c2.126 0 3.855-1.74 3.855-3.877a3.87 3.87 0 00-.421-1.76l6.638-6.527v3.374h2.164V0h-7.008v2.176h3.272l-6.55 6.442a3.814 3.814 0 00-1.95-.535c-2.126 0-3.856 1.74-3.856 3.878 0 .684.178 1.327.489 1.885l-2.37 2.33a26.22 26.22 0 00-5.617-8.4c-10.217-10.275-26.84-10.274-37.057 0C1.347 16.929.354 31.194 7.467 41.463l-1.822 1.9a3.813 3.813 0 00-1.79-.446C1.73 42.917 0 44.657 0 46.795s1.73 3.877 3.856 3.877 3.855-1.74 3.855-3.877c0-.7-.186-1.355-.509-1.922l1.592-1.66a26.52 26.52 0 001.654 1.83 26.048 26.048 0 0018.53 7.706 26.071 26.071 0 0014.727-4.543l3.907 4.2-1.625 1.633L64.907 73 75 62.85 56.08 43.89zm2.78-33.63c.933 0 1.692.763 1.692 1.7 0 .939-.76 1.702-1.692 1.702a1.699 1.699 0 01-1.692-1.701c0-.938.759-1.702 1.692-1.702zM3.856 48.495a1.699 1.699 0 01-1.692-1.701c0-.939.759-1.702 1.692-1.702.933 0 1.692.763 1.692 1.702 0 .938-.76 1.701-1.692 1.701zm8.123-4.992c-9.374-9.426-9.374-24.763 0-34.19a23.895 23.895 0 0116.998-7.069 23.897 23.897 0 0116.999 7.07c9.373 9.426 9.373 24.763 0 34.19-9.373 9.425-24.625 9.425-33.997 0zm33.475 3.397a26.42 26.42 0 003.842-3.85l3.682 3.958-3.835 3.857-3.69-3.965zm19.451 23.024L49.05 54.036l7.032-7.072 15.855 15.89-7.032 7.071z" fill="#687C94"/><path d="M54.922 49L52 52.085l1.444 1.525 1.477-1.56L60.556 58 62 56.475 54.922 49z" fill="#263135"/><path d="M64.414 58.586L63 60l1.414 1.414L65.828 60l-1.414-1.414zM14 53h-2v2h2v-2zM14 66h-2v2h2v-2z" fill="#000"/><path d="M31 58h-2v2h2v-2z" fill="#F6376D"/><path d="M62 38h-2v2h2v-2zM64 20h-2v2h2v-2z" fill="#000"/><path d="M71 30h-2v2h2v-2z" fill="#F6376D"/></svg>
